svg/black/ae.svg

<svg xmlns="http://www.w3.org/2000/svg" width="32" height="32" viewBox="0 0 32 32">
  <path fill-rule="evenodd" d="M16,32 C7.163444,32 0,24.836556 0,16 C0,7.163444 7.163444,0 16,0 C24.836556,0 32,7.163444 32,16 C32,24.836556 24.836556,32 16,32 Z M9.752,11 C7.2792,11.1744681 5.1606,13.2276596 5,15.6212766 L5,16.406383 C5.1694,18.8042553 7.3166,20.8340426 9.7872,21 L10.5902,21 C12.5504,20.8276596 14.1982,19.5851064 15.3862,18.1382979 C15.0958,17.712766 14.8032,17.2893617 14.5018,16.8723404 C13.7384,18 12.7418,19.0638298 11.3998,19.5319149 C10.192,19.9702128 8.7906,19.6893617 7.7852,18.9361702 C6.4432,17.9851064 5.9548,16.1425532 6.5554,14.6574468 C7.2374,12.8531915 9.5254,11.7914894 11.3976,12.4702128 C12.9134,13.0212766 13.8484,14.3851064 14.7636,15.5978723 C15.8284,16.9702128 16.7084,18.5106383 18.079,19.6340426 C19.0228,20.4361702 20.235,20.9 21.4824,21 L22.2282,21 C24.2544,20.8191489 26.1068,19.4659574 26.7426,17.5829787 C26.2806,17.5808511 25.8164,17.5808511 25.3544,17.5893617 C24.4458,19.4425532 21.8608,20.3404255 20.0128,19.2425532 C17.4564,17.7255319 16.352,14.8489362 14.3434,12.8106383 C13.3754,11.8212766 12.0686,11.1340426 10.6562,11 L9.752,11 Z M21.4318,11 C19.4584,11.1829787 17.8216,12.4531915 16.649,13.9212766 C16.924,14.3276596 17.2078,14.7297872 17.4938,15.1276596 C18.2374,14.0531915 19.201,13.0468085 20.4814,12.587234 C22.0874,11.9787234 24.096,12.5531915 25.0464,13.9574468 C25.4358,14.4957447 25.5854,15.1468085 25.6998,15.7829787 C24.0762,15.793617 22.4526,15.7829787 20.8268,15.787234 C20.829,16.1468085 20.829,16.5042553 20.8268,16.8638298 C22.8838,16.8617021 24.943,16.8744681 27,16.8553191 L27,15.6255319 C26.7954,13.2276596 24.6746,11.1574468 22.182,11 L21.4318,11 Z"/>
</svg>

<svg xmlns="http://www.w3.org/2000/svg" width="32" height="32"><path fill-rule="evenodd" d="M16 32C7.163 32 0 24.837 0 16S7.163 0 16 0s16 7.163 16 16-7.163 16-16 16zM9.752 11c-2.473.174-4.591 2.228-4.752 4.621v.785c.17 2.398 2.317 4.428 4.787 4.594h.803c1.96-.172 3.608-1.415 4.796-2.862-.29-.425-.583-.849-.884-1.266-.764 1.128-1.76 2.192-3.102 2.66-1.208.438-2.61.157-3.615-.596-1.342-.95-1.83-2.793-1.23-4.279.682-1.804 2.97-2.866 4.843-2.187 1.515.551 2.45 1.915 3.366 3.128 1.064 1.372 1.944 2.913 3.315 4.036.944.802 2.156 1.266 3.403 1.366h.746c2.026-.18 3.879-1.534 4.515-3.417a60.387 60.387 0 0 0-1.389.006c-.908 1.854-3.493 2.751-5.341 1.654-2.557-1.517-3.661-4.394-5.67-6.432-.968-.99-2.274-1.677-3.687-1.811h-.904zm11.68 0c-1.974.183-3.61 1.453-4.783 2.921.275.407.559.809.845 1.207.743-1.075 1.707-2.081 2.987-2.54 1.606-.61 3.615-.035 4.565 1.37.39.538.54 1.189.654 1.825-1.624.01-3.247 0-4.873.004.002.36.002.717 0 1.077 2.057-.002 4.116.01 6.173-.009v-1.23c-.205-2.397-2.325-4.468-4.818-4.625h-.75z"/></svg>
